Newaita-dark/apps/48/stacer.svg

<svg height="48pt" viewBox="0 0 48 48" width="48pt" xmlns="http://www.w3.org/2000/svg" xmlns:xlink="http://www.w3.org/1999/xlink"><linearGradient id="a"><stop offset="0" stop-opacity=".313726"/><stop offset=".222222" stop-opacity=".27451"/><stop offset="1" stop-opacity="0"/></linearGradient><radialGradient id="b" cx="450.908936" cy="189.579361" gradientTransform="matrix(.00000026 -.117199 -.210958 -.00000015 66.784728 95.392994)" gradientUnits="userSpaceOnUse" r="21.166656" xlink:href="#a"/><radialGradient id="c" cx="450.908936" cy="189.579361" gradientTransform="matrix(-.00000026 .117199 .210958 .00000015 -19.155178 -11.291223)" gradientUnits="userSpaceOnUse" r="21.166656" xlink:href="#a"/><radialGradient id="d" cx="450.908936" cy="189.579361" gradientTransform="matrix(-.00000026 -.117199 .210958 -.00000015 -19.155178 95.392994)" gradientUnits="userSpaceOnUse" r="21.166656" xlink:href="#a"/><radialGradient id="e" cx="450.908936" cy="189.579361" gradientTransform="matrix(.00000026 .117199 -.210958 .00000015 66.784725 -11.291224)" gradientUnits="userSpaceOnUse" r="21.166656" xlink:href="#a"/><linearGradient id="f" gradientTransform="matrix(.0200401 0 0 .093759 18.698079 20.158175)" gradientUnits="userSpaceOnUse" x1="255.323059" x2="255.323044" y1="233.5" y2="254.666656"><stop offset="0" stop-opacity=".27451"/><stop offset="1" stop-opacity="0"/></linearGradient><linearGradient id="g" gradientUnits="userSpaceOnUse" x1="254.000005" x2="254.000005" y1="-168.666672" y2="233.5"><stop offset="0" stop-color="#eee"/><stop offset="1" stop-color="#bdbdbd"/></linearGradient><linearGradient id="h"><stop offset="0" stop-color="#4db6ac"/><stop offset="1" stop-color="#80cbc4"/></linearGradient><linearGradient id="i" gradientUnits="userSpaceOnUse" x1="960" x2="960" xlink:href="#h" y1="1375.118164" y2="415.118103"/><linearGradient id="j" gradientUnits="userSpaceOnUse" x1="960" x2="960" y1="1375.118164" y2="415.118103"><stop offset="0" stop-color="#42a5f5"/><stop offset="1" stop-color="#64b5f6"/></linearGradient><linearGradient id="k" gradientUnits="userSpaceOnUse" x1="30.760804" x2="23.814816" y1="29.15127380616" y2="23.19756980616"><stop offset="0" stop-color="#26a69a" stop-opacity=".784314"/><stop offset="1" stop-color="#4db6ac" stop-opacity="0"/></linearGradient><linearGradient id="l" gradientUnits="userSpaceOnUse" x1="-70.384018" x2="-257.763397" xlink:href="#h" y1="-314.405029" y2="-142.59996"/><linearGradient id="m" gradientUnits="userSpaceOnUse" x1="254" x2="254" y1="53.583332" y2="11.25"><stop offset="0" stop-color="#616161"/><stop offset="1" stop-color="#757575"/></linearGradient><path d="m27.289062 42.050781h3.96875v-1.984375h-3.96875zm0 0" fill="url(#b)"/><path d="m20.339844 42.050781h-3.96875v1.984375h3.96875zm0 0" fill="url(#c)"/><path d="m20.339844 42.050781h-3.96875v-1.984375h3.96875zm0 0" fill="url(#d)"/><path d="m27.289062 42.050781h3.96875v1.984375h-3.96875zm0 0" fill="url(#e)"/><path d="m20.339844 41.554688h6.949218v2.480468h-6.949218zm0 0" fill="url(#f)"/><path d="m254.017409-168.671091c111.031064 0 201.064133 90.033069 201.064133 201.105795 0 111.031064-90.033069 201.064133-201.064133 201.064133-111.072726 0-201.105795-90.033069-201.105795-201.064133 0-111.072726 90.033069-201.105795 201.105795-201.105795zm0 0" fill="url(#g)" stroke="#333" stroke-linecap="round" stroke-width="3" transform="matrix(.093759 0 0 .093759 0 20.158175)"/><path d="m23.816406 42.050781c-10.445312 0-18.855468-8.410156-18.855468-18.851562 0-.0625 0-.125 0-.1875.101562 10.359375 8.472656 18.667969 18.855468 18.667969 10.382813 0 18.753906-8.308594 18.851563-18.667969v.1875c0 10.441406-8.410157 18.851562-18.851563 18.851562zm0 0" fill-opacity=".196078"/><path d="m23.816406 4.34375c-10.445312 0-18.855468 8.410156-18.855468 18.855469v.183593c.101562-10.359374 8.472656-18.667968 18.855468-18.667968 10.382813 0 18.753906 8.308594 18.851563 18.667968 0-.0625 0-.125 0-.183593 0-10.445313-8.410157-18.855469-18.851563-18.855469zm0 0" fill="#fff" fill-opacity=".784314"/><path d="m23.816406 4.203125c-10.523437 0-18.996094 8.472656-18.996094 18.996094 0 10.519531 8.472657 18.992187 18.996094 18.992187 10.519532 0 18.992188-8.472656 18.992188-18.992187 0-10.523438-8.472656-18.996094-18.992188-18.996094zm0 .28125c10.367188 0 18.710938 8.34375 18.710938 18.714844 0 10.367187-8.34375 18.710937-18.710938 18.710937-10.371094 0-18.714844-8.34375-18.714844-18.710937 0-10.371094 8.34375-18.714844 18.714844-18.714844zm0 0" fill="#212121"/><g stroke="#333" stroke-linecap="round"><path d="m254.017409-136.924123c93.491072 0 169.317165 75.826093 169.317165 169.358827 0 93.491073-75.826093 169.317165-169.317165 169.317165-93.532735 0-169.358827-75.826092-169.358827-169.317165 0-93.532734 75.826092-169.358827 169.358827-169.358827zm0 0" fill="#455a64" stroke-width="2.526316" transform="matrix(.093759 0 0 .093759 0 20.158175)"/><path d="m960.065849 415.078494c-288.161473 0-520.10784 231.946366-520.10784 520.10784 0 178.7231 89.440283 336.03092 226.120151 429.407835l45.192537-65.977955c-115.57952-79.205039-191.320322-212.10574-191.320322-363.42988 0-243.756263 196.359211-440.115475 440.115474-440.115475s439.958009 196.359212 439.958009 440.115475c0 151.32414-75.583337 284.224841-191.320322 363.42988l45.192537 65.977955c136.679868-93.376915 226.120151-250.684735 226.120151-429.407835 0-288.161474-231.946367-520.10784-519.950375-520.10784zm0 0" fill="url(#i)" stroke-width="7.757979" transform="scale(.0248071)"/><path d="m960.065849 415.078494v79.992365c243.756263 0 439.958009 196.359212 439.958009 440.115475 0 151.32414-75.583337 284.224841-191.320322 363.42988l45.192537 65.977955c136.679868-93.376915 226.120151-250.684735 226.120151-429.407835 0-288.161474-231.946367-520.10784-519.950375-520.10784zm0 0" fill="url(#j)" stroke-width="7.757979" transform="scale(.0248071)"/></g><path d="m21.863281 23.570312c-.019531.121094-.03125.242188-.03125.371094 0 1.101563.882813 1.984375 1.984375 1.984375 1.097656 0 1.984375-.882812 1.984375-1.984375 0-.128906-.011719-.25-.035156-.371094-.175781.917969-.980469 1.613282-1.949219 1.613282-.972656 0-1.777344-.695313-1.953125-1.613282zm0 0" fill-opacity=".235294"/><path d="m23.816406 14.265625v8.933594l6.863282 5.71875c1.292968-1.546875 2.066406-3.539063 2.066406-5.71875 0-4.949219-3.984375-8.933594-8.929688-8.933594zm0 0" fill="url(#k)"/><path d="m-138.927509-312.985309c2.928517-.016646 5.29976 2.343703 5.284552 5.299073l.018577 95.235773c-.010207 2.896663-2.402411 5.294758-5.299074 5.284552-2.928516.016646-5.299759-2.343703-5.284551-5.299073l-.018577-95.235773c.010207-2.896663 2.370557-5.267905 5.299073-5.284552zm0 0" fill="url(#l)" stroke="#212121" stroke-linecap="round" stroke-linejoin="round" stroke-width="3" transform="matrix(-.0604315 .0716853 -.0716853 -.0604315 0 20.158175)"/><path d="m254.017409 11.270059c11.665553 0 21.164646 9.45743 21.164646 21.164645 0 11.665553-9.499093 21.164646-21.164646 21.164646-11.707215 0-21.164645-9.499093-21.164645-21.164646 0-11.707215 9.45743-21.164645 21.164645-21.164645zm0 0" fill="url(#m)" stroke="#212121" stroke-linecap="round" stroke-linejoin="round" stroke-width="3" transform="matrix(.093759 0 0 .093759 0 20.158175)"/><path d="m23.816406 12.28125c-6.046875 0-10.917968 4.871094-10.917968 10.917969 0 .164062.003906.332031.011718.496093.257813-5.816406 5.023438-10.421874 10.90625-10.421874 5.878906 0 10.644532 4.605468 10.902344 10.421874.007812-.164062.011719-.332031.011719-.496093 0-6.046875-4.867188-10.917969-10.914063-10.917969zm-12.890625 11.40625c-.007812.167969-.011719.335938-.011719.503906 0 4.433594 2.21875 8.335938 5.609376 10.652344l1.121093-1.636719c-.152343-.105469-.304687-.214843-.453125-.328125l-.667968.972656c-3.265626-2.230468-5.441407-5.929687-5.597657-10.164062zm25.777344 0c-.15625 4.234375-2.332031 7.933594-5.597656 10.164062l-.667969-.972656c-.148438.113282-.300781.222656-.453125.328125l1.121094 1.636719c3.390625-2.316406 5.609375-6.21875 5.609375-10.652344 0-.167968-.003906-.335937-.011719-.503906zm0 0" fill-opacity=".235294"/></svg>

<?xml version="1.0" encoding="UTF-8"?>
<svg xmlns="http://www.w3.org/2000/svg" xmlns:xlink="http://www.w3.org/1999/xlink" width="48pt" height="48pt" viewBox="0 0 48 48" version="1.1">
<defs>
<radialGradient id="radial0" gradientUnits="userSpaceOnUse" cx="450.908936" cy="189.579361" fx="450.908936" fy="189.579361" r="21.166656" gradientTransform="matrix(0.000000261256,-0.117199,-0.210958,-0.000000152308,66.784728,95.392994)">
<stop offset="0" style="stop-color:rgb(0%,0%,0%);stop-opacity:0.313726;"/>
<stop offset="0.222222" style="stop-color:rgb(0%,0%,0%);stop-opacity:0.27451;"/>
<stop offset="1" style="stop-color:rgb(0%,0%,0%);stop-opacity:0;"/>
</radialGradient>
<radialGradient id="radial1" gradientUnits="userSpaceOnUse" cx="450.908936" cy="189.579361" fx="450.908936" fy="189.579361" r="21.166656" gradientTransform="matrix(-0.000000261256,0.117199,0.210958,0.000000152308,-19.155178,-11.291223)">
<stop offset="0" style="stop-color:rgb(0%,0%,0%);stop-opacity:0.313726;"/>
<stop offset="0.222222" style="stop-color:rgb(0%,0%,0%);stop-opacity:0.27451;"/>
<stop offset="1" style="stop-color:rgb(0%,0%,0%);stop-opacity:0;"/>
</radialGradient>
<radialGradient id="radial2" gradientUnits="userSpaceOnUse" cx="450.908936" cy="189.579361" fx="450.908936" fy="189.579361" r="21.166656" gradientTransform="matrix(-0.000000261256,-0.117199,0.210958,-0.000000152308,-19.155178,95.392994)">
<stop offset="0" style="stop-color:rgb(0%,0%,0%);stop-opacity:0.313726;"/>
<stop offset="0.222222" style="stop-color:rgb(0%,0%,0%);stop-opacity:0.27451;"/>
<stop offset="1" style="stop-color:rgb(0%,0%,0%);stop-opacity:0;"/>
</radialGradient>
<radialGradient id="radial3" gradientUnits="userSpaceOnUse" cx="450.908936" cy="189.579361" fx="450.908936" fy="189.579361" r="21.166656" gradientTransform="matrix(0.000000261256,0.117199,-0.210958,0.000000152308,66.784725,-11.291224)">
<stop offset="0" style="stop-color:rgb(0%,0%,0%);stop-opacity:0.313726;"/>
<stop offset="0.222222" style="stop-color:rgb(0%,0%,0%);stop-opacity:0.27451;"/>
<stop offset="1" style="stop-color:rgb(0%,0%,0%);stop-opacity:0;"/>
</radialGradient>
<linearGradient id="linear0" gradientUnits="userSpaceOnUse" x1="255.323059" y1="233.5" x2="255.323044" y2="254.666656" gradientTransform="matrix(0.0200401,0,0,0.093759,18.698079,20.158175)">
<stop offset="0" style="stop-color:rgb(0%,0%,0%);stop-opacity:0.27451;"/>
<stop offset="1" style="stop-color:rgb(0%,0%,0%);stop-opacity:0;"/>
</linearGradient>
<linearGradient id="linear1" gradientUnits="userSpaceOnUse" x1="254" y1="-168.666672" x2="254" y2="233.5" gradientTransform="matrix(1,0,0,1,0.00000508517,0)">
<stop offset="0" style="stop-color:rgb(93.333334%,93.333334%,93.333334%);stop-opacity:1;"/>
<stop offset="1" style="stop-color:rgb(74.117649%,74.117649%,74.117649%);stop-opacity:1;"/>
</linearGradient>
<linearGradient id="linear2" gradientUnits="userSpaceOnUse" x1="960" y1="1375.118164" x2="960" y2="415.118103" gradientTransform="matrix(1,0,0,1,0,-0)">
<stop offset="0" style="stop-color:rgb(30.19608%,71.372551%,67.450982%);stop-opacity:1;"/>
<stop offset="1" style="stop-color:rgb(50.196081%,79.607844%,76.862746%);stop-opacity:1;"/>
</linearGradient>
<linearGradient id="linear3" gradientUnits="userSpaceOnUse" x1="960" y1="1375.118164" x2="960" y2="415.118103" gradientTransform="matrix(1,0,0,1,0,-0)">
<stop offset="0" style="stop-color:rgb(25.882354%,64.705884%,96.078432%);stop-opacity:1;"/>
<stop offset="1" style="stop-color:rgb(39.215687%,70.980394%,96.470588%);stop-opacity:1;"/>
</linearGradient>
<linearGradient id="linear4" gradientUnits="userSpaceOnUse" x1="1240" y1="1175.118164" x2="960" y2="935.118164" gradientTransform="matrix(0.0248071,0,0,0.0248071,0,0.00000000000000282)">
<stop offset="0" style="stop-color:rgb(14.901961%,65.098041%,60.392159%);stop-opacity:0.784314;"/>
<stop offset="1" style="stop-color:rgb(30.19608%,71.372551%,67.450982%);stop-opacity:0;"/>
</linearGradient>
<linearGradient id="linear5" gradientUnits="userSpaceOnUse" x1="-70.384018" y1="-314.405029" x2="-257.763397" y2="-142.59996" gradientTransform="matrix(1,0,0,1,0,-0.000000000000028422)">
<stop offset="0" style="stop-color:rgb(30.19608%,71.372551%,67.450982%);stop-opacity:1;"/>
<stop offset="1" style="stop-color:rgb(50.196081%,79.607844%,76.862746%);stop-opacity:1;"/>
</linearGradient>
<linearGradient id="linear6" gradientUnits="userSpaceOnUse" x1="254" y1="53.583332" x2="254" y2="11.25" gradientTransform="matrix(1,0,0,1,0,0)">
<stop offset="0" style="stop-color:rgb(38.039216%,38.039216%,38.039216%);stop-opacity:1;"/>
<stop offset="1" style="stop-color:rgb(45.882353%,45.882353%,45.882353%);stop-opacity:1;"/>
</linearGradient>
</defs>
<g id="surface1">
<path style=" stroke:none;fill-rule:nonzero;fill:url(#radial0);" d="M 27.289062 42.050781 L 31.257812 42.050781 L 31.257812 40.066406 L 27.289062 40.066406 Z M 27.289062 42.050781 "/>
<path style=" stroke:none;fill-rule:nonzero;fill:url(#radial1);" d="M 20.339844 42.050781 L 16.371094 42.050781 L 16.371094 44.035156 L 20.339844 44.035156 Z M 20.339844 42.050781 "/>
<path style=" stroke:none;fill-rule:nonzero;fill:url(#radial2);" d="M 20.339844 42.050781 L 16.371094 42.050781 L 16.371094 40.066406 L 20.339844 40.066406 Z M 20.339844 42.050781 "/>
<path style=" stroke:none;fill-rule:nonzero;fill:url(#radial3);" d="M 27.289062 42.050781 L 31.257812 42.050781 L 31.257812 44.035156 L 27.289062 44.035156 Z M 27.289062 42.050781 "/>
<path style=" stroke:none;fill-rule:nonzero;fill:url(#linear0);" d="M 20.339844 41.554688 L 27.289062 41.554688 L 27.289062 44.035156 L 20.339844 44.035156 Z M 20.339844 41.554688 "/>
<path style="fill-rule:nonzero;fill:url(#linear1);stroke-width:3;stroke-linecap:round;stroke-linejoin:miter;stroke:rgb(20%,20%,20%);stroke-opacity:1;stroke-miterlimit:4;" d="M 254.017409 -168.671091 C 365.048473 -168.671091 455.081542 -78.638022 455.081542 32.434704 C 455.081542 143.465768 365.048473 233.498837 254.017409 233.498837 C 142.944683 233.498837 52.911614 143.465768 52.911614 32.434704 C 52.911614 -78.638022 142.944683 -168.671091 254.017409 -168.671091 Z M 254.017409 -168.671091 " transform="matrix(0.093759,0,0,0.093759,0,20.158175)"/>
<path style=" stroke:none;fill-rule:nonzero;fill:rgb(0%,0%,0%);fill-opacity:0.196078;" d="M 23.816406 42.050781 C 13.371094 42.050781 4.960938 33.640625 4.960938 23.199219 C 4.960938 23.136719 4.960938 23.074219 4.960938 23.011719 C 5.0625 33.371094 13.433594 41.679688 23.816406 41.679688 C 34.199219 41.679688 42.570312 33.371094 42.667969 23.011719 C 42.667969 23.074219 42.667969 23.136719 42.667969 23.199219 C 42.667969 33.640625 34.257812 42.050781 23.816406 42.050781 Z M 23.816406 42.050781 "/>
<path style=" stroke:none;fill-rule:nonzero;fill:rgb(100%,100%,100%);fill-opacity:0.784314;" d="M 23.816406 4.34375 C 13.371094 4.34375 4.960938 12.753906 4.960938 23.199219 C 4.960938 23.257812 4.960938 23.320312 4.960938 23.382812 C 5.0625 13.023438 13.433594 4.714844 23.816406 4.714844 C 34.199219 4.714844 42.570312 13.023438 42.667969 23.382812 C 42.667969 23.320312 42.667969 23.257812 42.667969 23.199219 C 42.667969 12.753906 34.257812 4.34375 23.816406 4.34375 Z M 23.816406 4.34375 "/>
<path style=" stroke:none;fill-rule:nonzero;fill:rgb(12.941177%,12.941177%,12.941177%);fill-opacity:1;" d="M 23.816406 4.203125 C 13.292969 4.203125 4.820312 12.675781 4.820312 23.199219 C 4.820312 33.71875 13.292969 42.191406 23.816406 42.191406 C 34.335938 42.191406 42.808594 33.71875 42.808594 23.199219 C 42.808594 12.675781 34.335938 4.203125 23.816406 4.203125 Z M 23.816406 4.484375 C 34.183594 4.484375 42.527344 12.828125 42.527344 23.199219 C 42.527344 33.566406 34.183594 41.910156 23.816406 41.910156 C 13.445312 41.910156 5.101562 33.566406 5.101562 23.199219 C 5.101562 12.828125 13.445312 4.484375 23.816406 4.484375 Z M 23.816406 4.484375 "/>
<path style="fill-rule:nonzero;fill:rgb(27.058825%,35.294119%,39.215687%);fill-opacity:1;stroke-width:2.526316;stroke-linecap:round;stroke-linejoin:miter;stroke:rgb(20%,20%,20%);stroke-opacity:1;stroke-miterlimit:4;" d="M 254.017409 -136.924123 C 347.508481 -136.924123 423.334574 -61.09803 423.334574 32.434704 C 423.334574 125.925777 347.508481 201.751869 254.017409 201.751869 C 160.484674 201.751869 84.658582 125.925777 84.658582 32.434704 C 84.658582 -61.09803 160.484674 -136.924123 254.017409 -136.924123 Z M 254.017409 -136.924123 " transform="matrix(0.093759,0,0,0.093759,0,20.158175)"/>
<path style="fill-rule:nonzero;fill:url(#linear2);stroke-width:7.757979;stroke-linecap:round;stroke-linejoin:miter;stroke:rgb(20%,20%,20%);stroke-opacity:1;stroke-miterlimit:4;" d="M 960.065849 415.078494 C 671.904376 415.078494 439.958009 647.02486 439.958009 935.186334 C 439.958009 1113.909434 529.398292 1271.217254 666.07816 1364.594169 L 711.270697 1298.616214 C 595.691177 1219.411175 519.950375 1086.510474 519.950375 935.186334 C 519.950375 691.430071 716.309586 495.070859 960.065849 495.070859 C 1203.822112 495.070859 1400.023858 691.430071 1400.023858 935.186334 C 1400.023858 1086.510474 1324.440521 1219.411175 1208.703536 1298.616214 L 1253.896073 1364.594169 C 1390.575941 1271.217254 1480.016224 1113.909434 1480.016224 935.186334 C 1480.016224 647.02486 1248.069857 415.078494 960.065849 415.078494 Z M 960.065849 415.078494 " transform="matrix(0.0248071,0,0,0.0248071,0,0)"/>
<path style="fill-rule:nonzero;fill:url(#linear3);stroke-width:7.757979;stroke-linecap:round;stroke-linejoin:miter;stroke:rgb(20%,20%,20%);stroke-opacity:1;stroke-miterlimit:4;" d="M 960.065849 415.078494 L 960.065849 495.070859 C 1203.822112 495.070859 1400.023858 691.430071 1400.023858 935.186334 C 1400.023858 1086.510474 1324.440521 1219.411175 1208.703536 1298.616214 L 1253.896073 1364.594169 C 1390.575941 1271.217254 1480.016224 1113.909434 1480.016224 935.186334 C 1480.016224 647.02486 1248.069857 415.078494 960.065849 415.078494 Z M 960.065849 415.078494 " transform="matrix(0.0248071,0,0,0.0248071,0,0)"/>
<path style=" stroke:none;fill-rule:nonzero;fill:rgb(0%,0%,0%);fill-opacity:0.235294;" d="M 21.863281 23.570312 C 21.84375 23.691406 21.832031 23.8125 21.832031 23.941406 C 21.832031 25.042969 22.714844 25.925781 23.816406 25.925781 C 24.914062 25.925781 25.800781 25.042969 25.800781 23.941406 C 25.800781 23.8125 25.789062 23.691406 25.765625 23.570312 C 25.589844 24.488281 24.785156 25.183594 23.816406 25.183594 C 22.84375 25.183594 22.039062 24.488281 21.863281 23.570312 Z M 21.863281 23.570312 "/>
<path style=" stroke:none;fill-rule:nonzero;fill:url(#linear4);" d="M 23.816406 14.265625 L 23.816406 23.199219 L 30.679688 28.917969 C 31.972656 27.371094 32.746094 25.378906 32.746094 23.199219 C 32.746094 18.25 28.761719 14.265625 23.816406 14.265625 Z M 23.816406 14.265625 "/>
<path style="fill-rule:nonzero;fill:url(#linear5);stroke-width:3;stroke-linecap:round;stroke-linejoin:round;stroke:rgb(12.941177%,12.941177%,12.941177%);stroke-opacity:1;stroke-miterlimit:4;" d="M -138.927509 -312.985309 C -135.998992 -313.001955 -133.627749 -310.641606 -133.642957 -307.686236 L -133.62438 -212.450463 C -133.634587 -209.5538 -136.026791 -207.155705 -138.923454 -207.165911 C -141.85197 -207.149265 -144.223213 -209.509614 -144.208005 -212.464984 L -144.226582 -307.700757 C -144.216375 -310.59742 -141.856025 -312.968662 -138.927509 -312.985309 Z M -138.927509 -312.985309 " transform="matrix(-0.0604315,0.0716853,-0.0716853,-0.0604315,0,20.158175)"/>
<path style="fill-rule:nonzero;fill:url(#linear6);stroke-width:3;stroke-linecap:round;stroke-linejoin:round;stroke:rgb(12.941177%,12.941177%,12.941177%);stroke-opacity:1;stroke-miterlimit:4;" d="M 254.017409 11.270059 C 265.682962 11.270059 275.182055 20.727489 275.182055 32.434704 C 275.182055 44.100257 265.682962 53.59935 254.017409 53.59935 C 242.310194 53.59935 232.852764 44.100257 232.852764 32.434704 C 232.852764 20.727489 242.310194 11.270059 254.017409 11.270059 Z M 254.017409 11.270059 " transform="matrix(0.093759,0,0,0.093759,0,20.158175)"/>
<path style=" stroke:none;fill-rule:nonzero;fill:rgb(0%,0%,0%);fill-opacity:0.235294;" d="M 23.816406 12.28125 C 17.769531 12.28125 12.898438 17.152344 12.898438 23.199219 C 12.898438 23.363281 12.902344 23.53125 12.910156 23.695312 C 13.167969 17.878906 17.933594 13.273438 23.816406 13.273438 C 29.695312 13.273438 34.460938 17.878906 34.71875 23.695312 C 34.726562 23.53125 34.730469 23.363281 34.730469 23.199219 C 34.730469 17.152344 29.863281 12.28125 23.816406 12.28125 Z M 10.925781 23.6875 C 10.917969 23.855469 10.914062 24.023438 10.914062 24.191406 C 10.914062 28.625 13.132812 32.527344 16.523438 34.84375 L 17.644531 33.207031 C 17.492188 33.101562 17.339844 32.992188 17.191406 32.878906 L 16.523438 33.851562 C 13.257812 31.621094 11.082031 27.921875 10.925781 23.6875 Z M 36.703125 23.6875 C 36.546875 27.921875 34.371094 31.621094 31.105469 33.851562 L 30.4375 32.878906 C 30.289062 32.992188 30.136719 33.101562 29.984375 33.207031 L 31.105469 34.84375 C 34.496094 32.527344 36.714844 28.625 36.714844 24.191406 C 36.714844 24.023438 36.710938 23.855469 36.703125 23.6875 Z M 36.703125 23.6875 "/>
</g>
</svg>
